; Rust logo, generated with svg2gcode from the official simple-icons SVG
; (https://github.com/simple-icons/simple-icons/blob/develop/icons/rust.svg)
; Reworked into a real routing job: 2 depth passes per contour cutting
; through 5mm MDF (-2.5mm, -5.2mm), not just a single-depth pen/laser trace.
G21
G90
G0 Z5.0                     ; safe height
G0 X35.61104166666666 Y8.211666666666662                ; rapid to contour start
G1 Z-2.5 F300              ; plunge
G2 X36.23312499999999 Y11.119999999999996 R1.4870833333333333 F1000
G2 X37.39912666243124 Y9.348427650208446 R1.4874999999999998 F1000
G2 X35.608681609536156 Y8.211682527772016 R1.4874999999999998 F1000
G1 X35.61104166666666 Y8.211666666666662 F1000
G1 Z-5.2 F300              ; plunge
G2 X36.23312499999999 Y11.119999999999996 R1.4870833333333333 F1000
G2 X37.39912666243124 Y9.348427650208446 R1.4874999999999998 F1000
G2 X35.608681609536156 Y8.211682527772016 R1.4874999999999998 F1000
G1 X35.61104166666666 Y8.211666666666662 F1000
G0 Z5.0                     ; retract
G0 X34.898124999999986 Y13.032916666666662                ; rapid to contour start
G1 Z-2.5 F300              ; plunge
G3 X33.29083333333332 Y11.991249999999992 R1.3520833333333333 F1000
G1 X32.54645833333331 Y8.515208333333318 F1000
G2 X28.92268229166664 Y7.311822916666651 R18.116516139243014 F1000
G2 X25.00624999999998 Y6.891249999999985 R18.353935948675524 F1000
G2 X17.308124999999965 Y8.587083333333316 R18.201666666666664 F1000
G1 X16.563541666666634 Y12.06291666666665 F1000
G3 X14.956458333333298 Y13.10249999999998 R1.3500000000000003 F1000
G1 X11.887708333333293 Y12.444583333333316 F1000
G2 X10.301666666666625 Y14.315416666666646 R18.17 F1000
G1 X25.234166666666624 Y14.315416666666637 F1000
G3 X25.51666666666662 Y14.498749999999974 R0.23813584475158728 F1000
G1 X25.516666666666612 Y19.782083333333308 F1000
G3 X25.23416666666661 Y19.965624999999974 R0.2382160714590387 F1000
G1 X20.86624999999994 Y19.96562499999997 F1000
G1 X20.866249999999933 Y23.314999999999962 F1000
G1 X25.590624999999925 Y23.31499999999996 F1000
G1 X26.141666666666595 Y23.258453776041627 F1000
G1 X26.97942708333326 Y22.95434895833329 F1000
G2 X27.848828124999926 Y22.20098632812496 R2.807902157243138 F1000
G1 X28.21568196614576 Y21.59280232747392 F1000
G1 X28.494791666666593 Y20.796666666666624 F1000
G1 X29.376458333333254 Y16.894791666666617 F1000
G1 X29.736236979166584 Y16.128776041666615 F1000
G1 X30.345781249999913 Y15.282447916666614 F1000
G1 X31.131341145833247 Y14.597447916666617 F1000
G3 X32.01916666666658 Y14.315416666666616 R1.706798744673099 F1000
G1 X39.45999999999991 Y14.31541666666661 F1000
G3 X39.729999999999905 Y14.342708333333285 R1.5608333333333333 F1000
G2 X38.03854166666656 Y12.358124999999944 R18.30708333333333 F1000
G1 X34.898124999999986 Y13.032916666666662 F1000
G1 Z-5.2 F300              ; plunge
G3 X33.29083333333332 Y11.991249999999992 R1.3520833333333333 F1000
G1 X32.54645833333331 Y8.515208333333318 F1000
G2 X28.92268229166664 Y7.311822916666651 R18.116516139243014 F1000
G2 X25.00624999999998 Y6.891249999999985 R18.353935948675524 F1000
G2 X17.308124999999965 Y8.587083333333316 R18.201666666666664 F1000
G1 X16.563541666666634 Y12.06291666666665 F1000
G3 X14.956458333333298 Y13.10249999999998 R1.3500000000000003 F1000
G1 X11.887708333333293 Y12.444583333333316 F1000
G2 X10.301666666666625 Y14.315416666666646 R18.17 F1000
G1 X25.234166666666624 Y14.315416666666637 F1000
G3 X25.51666666666662 Y14.498749999999974 R0.23813584475158728 F1000
G1 X25.516666666666612 Y19.782083333333308 F1000
G3 X25.23416666666661 Y19.965624999999974 R0.2382160714590387 F1000
G1 X20.86624999999994 Y19.96562499999997 F1000
G1 X20.866249999999933 Y23.314999999999962 F1000
G1 X25.590624999999925 Y23.31499999999996 F1000
G1 X26.141666666666595 Y23.258453776041627 F1000
G1 X26.97942708333326 Y22.95434895833329 F1000
G2 X27.848828124999926 Y22.20098632812496 R2.807902157243138 F1000
G1 X28.21568196614576 Y21.59280232747392 F1000
G1 X28.494791666666593 Y20.796666666666624 F1000
G1 X29.376458333333254 Y16.894791666666617 F1000
G1 X29.736236979166584 Y16.128776041666615 F1000
G1 X30.345781249999913 Y15.282447916666614 F1000
G1 X31.131341145833247 Y14.597447916666617 F1000
G3 X32.01916666666658 Y14.315416666666616 R1.706798744673099 F1000
G1 X39.45999999999991 Y14.31541666666661 F1000
G3 X39.729999999999905 Y14.342708333333285 R1.5608333333333333 F1000
G2 X38.03854166666656 Y12.358124999999944 R18.30708333333333 F1000
G1 X34.898124999999986 Y13.032916666666662 F1000
G0 Z5.0                     ; retract
G0 X14.243541666666665 Y8.283333333333328                ; rapid to contour start
G1 Z-2.5 F300              ; plunge
G2 X12.453165004235508 Y9.420094316875138 R1.4874999999999998 F1000
G2 X13.619118678336763 Y11.191657183574762 R1.4874999999999998 F1000
G2 X14.24354166666666 Y8.28333333333332 R1.4874999999999998 F1000
G1 X14.243541666666665 Y8.283333333333328 F1000
G1 Z-5.2 F300              ; plunge
G2 X12.453165004235508 Y9.420094316875138 R1.4874999999999998 F1000
G2 X13.619118678336763 Y11.191657183574762 R1.4874999999999998 F1000
G2 X14.24354166666666 Y8.28333333333332 R1.4874999999999998 F1000
G1 X14.243541666666665 Y8.283333333333328 F1000
G0 Z5.0                     ; retract
G0 X8.578541666666666 Y31.25583333333333                ; rapid to contour start
G1 Z-2.5 F300              ; plunge
G2 X7.841186846111215 Y29.254509765633287 R1.486875 F1000
G2 X5.861918937265946 Y30.04926783662858 R1.486875 F1000
G2 X8.578541666666661 Y31.255624999999988 R1.486875 F1000
G1 X8.578541666666666 Y31.25583333333333 F1000
G1 Z-5.2 F300              ; plunge
G2 X7.841186846111215 Y29.254509765633287 R1.486875 F1000
G2 X5.861918937265946 Y30.04926783662858 R1.486875 F1000
G2 X8.578541666666661 Y31.255624999999988 R1.486875 F1000
G1 X8.578541666666666 Y31.25583333333333 F1000
G0 Z5.0                     ; retract
G0 X6.838541666666665 Y27.128125                ; rapid to contour start
G1 Z-2.5 F300              ; plunge
G1 X10.035833333333331 Y28.549791666666664 F1000
G3 X10.723333333333327 Y30.338333333333324 R1.3541666666666667 F1000
G1 X10.065416666666659 Y31.827291666666653 F1000
G1 X12.655416666666657 Y31.827291666666653 F1000
G1 X12.655416666666655 Y20.155416666666646 F1000
G1 X7.431041666666666 Y20.155416666666643 F1000
G2 X6.840624999999999 Y27.13041666666664 R18.281875 F1000
G1 X6.838541666666665 Y27.128125 F1000
G1 Z-5.2 F300              ; plunge
G1 X10.035833333333331 Y28.549791666666664 F1000
G3 X10.723333333333327 Y30.338333333333324 R1.3541666666666667 F1000
G1 X10.065416666666659 Y31.827291666666653 F1000
G1 X12.655416666666657 Y31.827291666666653 F1000
G1 X12.655416666666655 Y20.155416666666646 F1000
G1 X7.431041666666666 Y20.155416666666643 F1000
G2 X6.840624999999999 Y27.13041666666664 R18.281875 F1000
G1 X6.838541666666665 Y27.128125 F1000
G0 Z5.0                     ; retract
G0 X20.868333333333332 Y28.260833333333323                ; rapid to contour start
G1 Z-2.5 F300              ; plunge
G1 X20.86833333333333 Y31.70083333333334 F1000
G1 X27.035208333333323 Y31.700833333333332 F1000
G1 X27.520983072916657 Y31.620608723958327 F1000
G1 X28.27890624999999 Y31.335911458333328 F1000
G2 X29.283541666666657 Y29.888958333333328 R1.699400636472033 F1000
G2 X28.391119791666654 Y28.625677083333326 R1.4640208588672492 F1000
G2 X26.58604166666665 Y28.260833333333323 R4.058484378487923 F1000
G1 X20.868333333333332 Y28.260833333333323 F1000
G1 Z-5.2 F300              ; plunge
G1 X20.86833333333333 Y31.70083333333334 F1000
G1 X27.035208333333323 Y31.700833333333332 F1000
G1 X27.520983072916657 Y31.620608723958327 F1000
G1 X28.27890624999999 Y31.335911458333328 F1000
G2 X29.283541666666657 Y29.888958333333328 R1.699400636472033 F1000
G2 X28.391119791666654 Y28.625677083333326 R1.4640208588672492 F1000
G2 X26.58604166666665 Y28.260833333333323 R4.058484378487923 F1000
G1 X20.868333333333332 Y28.260833333333323 F1000
G0 Z5.0                     ; retract
G0 X43.27958333333333 Y25.164583333333315                ; rapid to contour start
G1 Z-2.5 F300              ; plunge
G1 X43.228958333333324 Y23.80833333333331 F1000
G1 X41.353958333333324 Y23.808333333333305 F1000
G3 X41.09041666666665 Y23.500624999999967 R0.28647742360639916 F1000
G1 X41.09041666666664 Y22.640208333333298 F1000
G1 X41.03934122721351 Y21.951952311197882 F1000
G1 X40.896149088541634 Y21.397675781249966 F1000
G2 X40.39361979166663 Y20.632135416666628 R1.9679020994773233 F1000
G2 X38.94541666666664 Y20.060624999999952 R2.5049646933801393 F1000
G1 X38.68232450744117 Y20.04606902670864 F1000
G2 X37.45972250092638 Y20.34565223363255 R2.607822835047274 F1000
G1 X37.02509969950915 Y20.66358072073622 F1000
G1 X36.80479166666664 Y21.04333333333329 F1000
G1 X36.309690755208294 Y22.99639322916662 F1000
G1 X35.65867187499997 Y24.29593749999995 F1000
G3 X33.8245833333333 Y26.050416666666617 R8.483715817573124 F1000
G3 X36.38736979166663 Y28.219479166666613 R10.571458478622592 F1000
G3 X37.572499999999955 Y31.24104166666661 R4.82486919856709 F1000
G3 X37.287737630208284 Y32.93553059895827 R5.1250945898320905 F1000
G3 X36.574088541666626 Y34.29664062499994 R5.42136499130661 F1000
G1 X35.64250976562495 Y35.3358365885416 F1000
G1 X34.70395833333328 Y36.064583333333275 F1000
G1 X33.47178385416662 Y36.72002278645827 F1000
G1 X32.313906249999945 Y37.11325520833327 F1000
G1 X31.370325520833276 Y37.30480794270827 F1000
G1 X30.781041666666614 Y37.35520833333327 F1000
G1 X11.392083333333334 Y37.35520833333326 F1000
G2 X21.615 Y43.12583333333326 R18.260624999999997 F1000
G1 X23.901249999999994 Y40.72791666666658 F1000
G3 X25.81416666666666 Y40.68354166666657 R1.3500000000000003 F1000
G1 X28.370416666666657 Y43.1299999999999 F1000
G2 X40.879583333333315 Y34.22124999999989 R18.281875 F1000
G1 X39.12895833333331 Y30.266666666666552 F1000
G3 X39.8164583333333 Y28.478124999999878 R1.3583333333333334 F1000
G1 X43.18687499999997 Y26.980624999999876 F1000
G1 X43.27541666666663 Y25.1645833333332 F1000
G1 X43.27958333333333 Y25.164583333333315 F1000
G1 Z-5.2 F300              ; plunge
G1 X43.228958333333324 Y23.80833333333331 F1000
G1 X41.353958333333324 Y23.808333333333305 F1000
G3 X41.09041666666665 Y23.500624999999967 R0.28647742360639916 F1000
G1 X41.09041666666664 Y22.640208333333298 F1000
G1 X41.03934122721351 Y21.951952311197882 F1000
G1 X40.896149088541634 Y21.397675781249966 F1000
G2 X40.39361979166663 Y20.632135416666628 R1.9679020994773233 F1000
G2 X38.94541666666664 Y20.060624999999952 R2.5049646933801393 F1000
G1 X38.68232450744117 Y20.04606902670864 F1000
G2 X37.45972250092638 Y20.34565223363255 R2.607822835047274 F1000
G1 X37.02509969950915 Y20.66358072073622 F1000
G1 X36.80479166666664 Y21.04333333333329 F1000
G1 X36.309690755208294 Y22.99639322916662 F1000
G1 X35.65867187499997 Y24.29593749999995 F1000
G3 X33.8245833333333 Y26.050416666666617 R8.483715817573124 F1000
G3 X36.38736979166663 Y28.219479166666613 R10.571458478622592 F1000
G3 X37.572499999999955 Y31.24104166666661 R4.82486919856709 F1000
G3 X37.287737630208284 Y32.93553059895827 R5.1250945898320905 F1000
G3 X36.574088541666626 Y34.29664062499994 R5.42136499130661 F1000
G1 X35.64250976562495 Y35.3358365885416 F1000
G1 X34.70395833333328 Y36.064583333333275 F1000
G1 X33.47178385416662 Y36.72002278645827 F1000
G1 X32.313906249999945 Y37.11325520833327 F1000
G1 X31.370325520833276 Y37.30480794270827 F1000
G1 X30.781041666666614 Y37.35520833333327 F1000
G1 X11.392083333333334 Y37.35520833333326 F1000
G2 X21.615 Y43.12583333333326 R18.260624999999997 F1000
G1 X23.901249999999994 Y40.72791666666658 F1000
G3 X25.81416666666666 Y40.68354166666657 R1.3500000000000003 F1000
G1 X28.370416666666657 Y43.1299999999999 F1000
G2 X40.879583333333315 Y34.22124999999989 R18.281875 F1000
G1 X39.12895833333331 Y30.266666666666552 F1000
G3 X39.8164583333333 Y28.478124999999878 R1.3583333333333334 F1000
G1 X43.18687499999997 Y26.980624999999876 F1000
G1 X43.27541666666663 Y25.1645833333332 F1000
G1 X43.27958333333333 Y25.164583333333315 F1000
G0 Z5.0                     ; retract
G0 X23.90333333333333 Y45.16312499999997                ; rapid to contour start
G1 Z-2.5 F300              ; plunge
G2 X26.00278047645832 Y45.113684425948634 R1.4850435482765394 F1000
G2 X25.95347609261533 Y43.014094523541644 R1.4850435482765394 F1000
G2 X23.90333333333332 Y45.163124999999965 R1.486875 F1000
G1 X23.90333333333333 Y45.16312499999997 F1000
G1 Z-5.2 F300              ; plunge
G2 X26.00278047645832 Y45.113684425948634 R1.4850435482765394 F1000
G2 X25.95347609261533 Y43.014094523541644 R1.4850435482765394 F1000
G2 X23.90333333333332 Y45.163124999999965 R1.486875 F1000
G1 X23.90333333333333 Y45.16312499999997 F1000
G0 Z5.0                     ; retract
G0 X41.27604166666666 Y31.183958333333305                ; rapid to contour start
G1 Z-2.5 F300              ; plunge
G2 X43.23333333333332 Y31.939166666666637 R1.4806249999999999 F1000
G2 X43.16900182794024 Y29.191921865623108 R1.486875 F1000
G2 X41.27399546316167 Y31.181958676104106 R1.486875 F1000
G1 X41.27604166666666 Y31.183958333333305 F1000
G1 Z-5.2 F300              ; plunge
G2 X43.23333333333332 Y31.939166666666637 R1.4806249999999999 F1000
G2 X43.16900182794024 Y29.191921865623108 R1.486875 F1000
G2 X41.27399546316167 Y31.181958676104106 R1.486875 F1000
G1 X41.27604166666666 Y31.183958333333305 F1000
G0 Z5.0                     ; retract
G0 X49.65541666666666 Y25.618125                ; rapid to contour start
G1 Z-2.5 F300              ; plunge
G1 X47.556874999999984 Y26.91729166666666 F1000
G3 X47.49791666666664 Y27.528958333333325 R28.5975 F1000
G1 X49.30124999999997 Y29.20999999999999 F1000
G3 X49.0608333333333 Y30.41416666666665 R0.7256250000000001 F1000
G1 X46.75541666666662 Y31.27666666666664 F1000
G3 X46.574166666666606 Y31.871666666666638 R17.69958333333333 F1000
G1 X48.01249999999993 Y33.868958333333296 F1000
G3 X47.54229166666659 Y35.00354166666662 R0.7212500000000001 F1000
G1 X45.11249999999992 Y35.39812499999995 F1000
G3 X44.81937499999991 Y35.944374999999944 R19.49458333333333 F1000
G1 X45.84020833333324 Y38.186249999999944 F1000
G3 X45.78312499999989 Y38.886458333333266 R0.7160416666666666 F1000
G3 X45.15687499999988 Y39.2072916666666 R0.7262500000000001 F1000
G1 X42.68916666666655 Y39.12062499999993 F1000
G3 X42.2989583333332 Y39.59312499999991 R14.05083333333333 F1000
G1 X42.866249999999866 Y41.995208333333245 F1000
G3 X41.99749999999985 Y42.864374999999896 R0.7233333333333334 F1000
G1 X39.59499999999985 Y42.29687499999989 F1000
G3 X39.12041666666652 Y42.68708333333321 R29.204791666666665 F1000
G1 X39.20687499999983 Y45.15479166666655 F1000
G3 X38.186041666666505 Y45.83812499999988 R0.7170833333333334 F1000
G1 X35.94437499999983 Y44.815208333333196 F1000
G1 X35.39791666666649 Y45.108333333333185 F1000
G1 X35.00145833333315 Y47.54020833333318 F1000
G3 X33.86666666666666 Y48.010416666666664 R0.7256250000000001 F1000
G1 X31.867291666666667 Y46.57187499999999 F1000
G3 X31.272499999999987 Y46.75104166666665 R17.680625000000003 F1000
G1 X30.40999999999998 Y49.05645833333331 F1000
G3 X29.205624999999976 Y49.29687499999998 R0.7256250000000001 F1000
G1 X27.5245833333333 Y47.4914583333333 F1000
G3 X26.912916666666636 Y47.550624999999954 R19.361666666666665 F1000
G1 X25.613750000000003 Y49.64937499999999 F1000
G3 X24.386249999999997 Y49.64937499999999 R0.7212500000000001 F1000
G1 X23.08708333333333 Y47.55083333333332 F1000
G3 X22.475416666666657 Y47.491666666666646 R28.621458333333337 F1000
G1 X20.792291666666667 Y49.29708333333333 F1000
G3 X19.588124999999998 Y49.05666666666666 R0.7212500000000001 F1000
G1 X18.72541666666666 Y46.75145833333332 F1000
G1 X18.130624999999988 Y46.57229166666664 F1000
G1 X16.133333333333333 Y48.010416666666664 F1000
G3 X14.998541666666663 Y47.54 R0.7256250000000001 F1000
G1 X14.602083333333335 Y45.108333333333334 F1000
G3 X14.055833333333334 Y44.81520833333333 R19.49458333333333 F1000
G1 X11.813749999999995 Y45.838124999999984 F1000
G3 X10.792916666666661 Y45.154791666666654 R0.7212500000000001 F1000
G1 X10.879583333333326 Y42.687083333333305 F1000
G3 X10.40499999999999 Y42.29687499999997 R16.630416666666665 F1000
G1 X8.002708333333334 Y42.86458333333333 F1000
G3 X7.133749999999999 Y41.995625 R0.7233333333333334 F1000
G1 X7.698958333333332 Y39.59333333333332 F1000
G1 X7.31083333333333 Y39.12083333333331 F1000
G1 X4.843124999999997 Y39.20729166666663 F1000
G3 X4.159791666666663 Y38.18645833333329 R0.7212500000000001 F1000
G1 X5.182708333333329 Y35.944583333333284 F1000
G3 X4.889583333333327 Y35.398333333333284 R19.097916666666666 F1000
G1 X2.4599999999999933 Y35.00374999999994 F1000
G3 X1.9895833333333264 Y33.8691666666666 R0.7256250000000001 F1000
G1 X3.427916666666659 Y31.871874999999925 F1000
G3 X3.2466666666666586 Y31.277083333333255 R27.714583333333337 F1000
G1 X0.9414583333333244 Y30.414583333333244 F1000
G3 X0.7008333333333243 Y29.21020833333325 R0.7256250000000001 F1000
G1 X2.504166666666658 Y27.528958333333236 F1000
G3 X2.4452083333333245 Y26.917499999999894 R19.361666666666665 F1000
G1 X0.34666666666665674 Y25.618333333333226 F1000
G3 X0.34666666666665663 Y24.390833333333223 R0.7170833333333334 F1000
G1 X2.4452083333333237 Y23.09166666666655 F1000
G1 X2.5041666666666567 Y22.479999999999883 F1000
G1 X0.7008333333333225 Y20.796874999999876 F1000
G3 X0.9414583333333223 Y19.59270833333321 R0.7212500000000001 F1000
G1 X3.2466666666666555 Y18.729999999999876 F1000
G1 X3.4279166666666554 Y18.1352083333332 F1000
G1 X1.989583333333321 Y16.137916666666534 F1000
G3 X2.462083333333321 Y15.003124999999875 R0.7191666666666666 F1000
G1 X4.891666666666653 Y14.608749999999873 F1000
G1 X5.184999999999985 Y14.06249999999987 F1000
G1 X4.162083333333318 Y11.82041666666653 F1000
G3 X4.84541666666665 Y10.799583333333203 R0.7212500000000001 F1000
G1 X7.310833333333317 Y10.886041666666534 F1000
G1 X7.701041666666649 Y10.41166666666653 F1000
G1 X7.135833333333313 Y8.00729166666653 F1000
G3 X8.004791666666645 Y7.140416666666534 R0.7212500000000001 F1000
G1 X10.406874999999976 Y7.705624999999861 F1000
G1 X10.881666666666641 Y7.317499999999856 F1000
G1 X10.795208333333306 Y4.849791666666529 F1000
G3 X11.81604166666664 Y4.168541666666526 R0.7170833333333334 F1000
G1 X14.057916666666637 Y5.189374999999852 F1000
G1 X14.604166666666638 Y4.896249999999853 F1000
G1 X15.000624999999966 Y2.466666666666519 F1000
G3 X16.13541666666663 Y1.9941666666665183 R0.7256250000000001 F1000
G1 X18.132708333333287 Y3.4324999999998496 F1000
G3 X18.727499999999957 Y3.2512499999998457 R19.372916666666665 F1000
G1 X19.58999999999995 Y0.9458333333331783 F1000
G3 X20.79437499999995 Y0.7054166666665123 R0.7191666666666666 F1000
G1 X22.477499999999942 Y2.5087499999998473 F1000
G1 X23.089166666666603 Y2.447499999999845 F1000
G1 X24.388333333333264 Y0.34895833333317877 F1000
G3 X25.61583333333326 Y0.34895833333317877 R0.7233333333333334 F1000
G1 X26.914999999999925 Y2.447499999999845 F1000
G1 X27.52666666666659 Y2.5087499999998473 F1000
G1 X29.207708333333255 Y0.7054166666665123 F1000
G3 X30.41187499999991 Y0.9458333333331783 R0.7256250000000001 F1000
G1 X31.274583333333236 Y3.2512499999998457 F1000
G3 X31.86937499999991 Y3.4324999999998496 R17.630416666666665 F1000
G1 X33.86666666666656 Y1.994166666666511 F1000
G3 X35.00145833333322 Y2.466666666666512 R0.7191666666666666 F1000
G1 X35.397916666666546 Y4.896249999999846 F1000
G1 X35.94416666666655 Y5.189374999999845 F1000
G1 X38.18624999999988 Y4.168541666666518 F1000
G3 X39.2070833333332 Y4.849791666666521 R0.7233333333333334 F1000
G1 X39.12062499999987 Y7.317499999999849 F1000
G3 X39.592916666666525 Y7.705624999999847 R14.013958333333335 F1000
G1 X41.99520833333318 Y7.140416666666511 F1000
G3 X42.864166666666506 Y8.007083333333176 R0.7233333333333334 F1000
G1 X42.29895833333316 Y10.411666666666509 F1000
G1 X42.68708333333317 Y10.886249999999835 F1000
G1 X45.15479166666648 Y10.799791666666497 F1000
G3 X45.83812499999981 Y11.820624999999831 R0.7170833333333334 F1000
G1 X44.81729166666647 Y14.062291666666493 F1000
G1 X45.11041666666647 Y14.608749999999826 F1000
G1 X47.53999999999979 Y15.003124999999821 F1000
G3 X48.010416666666444 Y16.137916666666488 R0.7256250000000001 F1000
G1 X46.572083333333104 Y18.135208333333154 F1000
G1 X46.75333333333309 Y18.72999999999982 F1000
G1 X49.05874999999975 Y19.592499999999816 F1000
G3 X49.29916666666641 Y20.796874999999808 R0.7212500000000001 F1000
G1 X47.49583333333307 Y22.4799999999998 F1000
G1 X47.554791666666404 Y23.091666666666466 F1000
G1 X49.65333333333306 Y24.390833333333127 F1000
G3 X49.653333333333045 Y25.618333333333126 R0.7170833333333334 F1000
G1 X49.65541666666666 Y25.618125 F1000
G1 Z-5.2 F300              ; plunge
G1 X47.556874999999984 Y26.91729166666666 F1000
G3 X47.49791666666664 Y27.528958333333325 R28.5975 F1000
G1 X49.30124999999997 Y29.20999999999999 F1000
G3 X49.0608333333333 Y30.41416666666665 R0.7256250000000001 F1000
G1 X46.75541666666662 Y31.27666666666664 F1000
G3 X46.574166666666606 Y31.871666666666638 R17.69958333333333 F1000
G1 X48.01249999999993 Y33.868958333333296 F1000
G3 X47.54229166666659 Y35.00354166666662 R0.7212500000000001 F1000
G1 X45.11249999999992 Y35.39812499999995 F1000
G3 X44.81937499999991 Y35.944374999999944 R19.49458333333333 F1000
G1 X45.84020833333324 Y38.186249999999944 F1000
G3 X45.78312499999989 Y38.886458333333266 R0.7160416666666666 F1000
G3 X45.15687499999988 Y39.2072916666666 R0.7262500000000001 F1000
G1 X42.68916666666655 Y39.12062499999993 F1000
G3 X42.2989583333332 Y39.59312499999991 R14.05083333333333 F1000
G1 X42.866249999999866 Y41.995208333333245 F1000
G3 X41.99749999999985 Y42.864374999999896 R0.7233333333333334 F1000
G1 X39.59499999999985 Y42.29687499999989 F1000
G3 X39.12041666666652 Y42.68708333333321 R29.204791666666665 F1000
G1 X39.20687499999983 Y45.15479166666655 F1000
G3 X38.186041666666505 Y45.83812499999988 R0.7170833333333334 F1000
G1 X35.94437499999983 Y44.815208333333196 F1000
G1 X35.39791666666649 Y45.108333333333185 F1000
G1 X35.00145833333315 Y47.54020833333318 F1000
G3 X33.86666666666666 Y48.010416666666664 R0.7256250000000001 F1000
G1 X31.867291666666667 Y46.57187499999999 F1000
G3 X31.272499999999987 Y46.75104166666665 R17.680625000000003 F1000
G1 X30.40999999999998 Y49.05645833333331 F1000
G3 X29.205624999999976 Y49.29687499999998 R0.7256250000000001 F1000
G1 X27.5245833333333 Y47.4914583333333 F1000
G3 X26.912916666666636 Y47.550624999999954 R19.361666666666665 F1000
G1 X25.613750000000003 Y49.64937499999999 F1000
G3 X24.386249999999997 Y49.64937499999999 R0.7212500000000001 F1000
G1 X23.08708333333333 Y47.55083333333332 F1000
G3 X22.475416666666657 Y47.491666666666646 R28.621458333333337 F1000
G1 X20.792291666666667 Y49.29708333333333 F1000
G3 X19.588124999999998 Y49.05666666666666 R0.7212500000000001 F1000
G1 X18.72541666666666 Y46.75145833333332 F1000
G1 X18.130624999999988 Y46.57229166666664 F1000
G1 X16.133333333333333 Y48.010416666666664 F1000
G3 X14.998541666666663 Y47.54 R0.7256250000000001 F1000
G1 X14.602083333333335 Y45.108333333333334 F1000
G3 X14.055833333333334 Y44.81520833333333 R19.49458333333333 F1000
G1 X11.813749999999995 Y45.838124999999984 F1000
G3 X10.792916666666661 Y45.154791666666654 R0.7212500000000001 F1000
G1 X10.879583333333326 Y42.687083333333305 F1000
G3 X10.40499999999999 Y42.29687499999997 R16.630416666666665 F1000
G1 X8.002708333333334 Y42.86458333333333 F1000
G3 X7.133749999999999 Y41.995625 R0.7233333333333334 F1000
G1 X7.698958333333332 Y39.59333333333332 F1000
G1 X7.31083333333333 Y39.12083333333331 F1000
G1 X4.843124999999997 Y39.20729166666663 F1000
G3 X4.159791666666663 Y38.18645833333329 R0.7212500000000001 F1000
G1 X5.182708333333329 Y35.944583333333284 F1000
G3 X4.889583333333327 Y35.398333333333284 R19.097916666666666 F1000
G1 X2.4599999999999933 Y35.00374999999994 F1000
G3 X1.9895833333333264 Y33.8691666666666 R0.7256250000000001 F1000
G1 X3.427916666666659 Y31.871874999999925 F1000
G3 X3.2466666666666586 Y31.277083333333255 R27.714583333333337 F1000
G1 X0.9414583333333244 Y30.414583333333244 F1000
G3 X0.7008333333333243 Y29.21020833333325 R0.7256250000000001 F1000
G1 X2.504166666666658 Y27.528958333333236 F1000
G3 X2.4452083333333245 Y26.917499999999894 R19.361666666666665 F1000
G1 X0.34666666666665674 Y25.618333333333226 F1000
G3 X0.34666666666665663 Y24.390833333333223 R0.7170833333333334 F1000
G1 X2.4452083333333237 Y23.09166666666655 F1000
G1 X2.5041666666666567 Y22.479999999999883 F1000
G1 X0.7008333333333225 Y20.796874999999876 F1000
G3 X0.9414583333333223 Y19.59270833333321 R0.7212500000000001 F1000
G1 X3.2466666666666555 Y18.729999999999876 F1000
G1 X3.4279166666666554 Y18.1352083333332 F1000
G1 X1.989583333333321 Y16.137916666666534 F1000
G3 X2.462083333333321 Y15.003124999999875 R0.7191666666666666 F1000
G1 X4.891666666666653 Y14.608749999999873 F1000
G1 X5.184999999999985 Y14.06249999999987 F1000
G1 X4.162083333333318 Y11.82041666666653 F1000
G3 X4.84541666666665 Y10.799583333333203 R0.7212500000000001 F1000
G1 X7.310833333333317 Y10.886041666666534 F1000
G1 X7.701041666666649 Y10.41166666666653 F1000
G1 X7.135833333333313 Y8.00729166666653 F1000
G3 X8.004791666666645 Y7.140416666666534 R0.7212500000000001 F1000
G1 X10.406874999999976 Y7.705624999999861 F1000
G1 X10.881666666666641 Y7.317499999999856 F1000
G1 X10.795208333333306 Y4.849791666666529 F1000
G3 X11.81604166666664 Y4.168541666666526 R0.7170833333333334 F1000
G1 X14.057916666666637 Y5.189374999999852 F1000
G1 X14.604166666666638 Y4.896249999999853 F1000
G1 X15.000624999999966 Y2.466666666666519 F1000
G3 X16.13541666666663 Y1.9941666666665183 R0.7256250000000001 F1000
G1 X18.132708333333287 Y3.4324999999998496 F1000
G3 X18.727499999999957 Y3.2512499999998457 R19.372916666666665 F1000
G1 X19.58999999999995 Y0.9458333333331783 F1000
G3 X20.79437499999995 Y0.7054166666665123 R0.7191666666666666 F1000
G1 X22.477499999999942 Y2.5087499999998473 F1000
G1 X23.089166666666603 Y2.447499999999845 F1000
G1 X24.388333333333264 Y0.34895833333317877 F1000
G3 X25.61583333333326 Y0.34895833333317877 R0.7233333333333334 F1000
G1 X26.914999999999925 Y2.447499999999845 F1000
G1 X27.52666666666659 Y2.5087499999998473 F1000
G1 X29.207708333333255 Y0.7054166666665123 F1000
G3 X30.41187499999991 Y0.9458333333331783 R0.7256250000000001 F1000
G1 X31.274583333333236 Y3.2512499999998457 F1000
G3 X31.86937499999991 Y3.4324999999998496 R17.630416666666665 F1000
G1 X33.86666666666656 Y1.994166666666511 F1000
G3 X35.00145833333322 Y2.466666666666512 R0.7191666666666666 F1000
G1 X35.397916666666546 Y4.896249999999846 F1000
G1 X35.94416666666655 Y5.189374999999845 F1000
G1 X38.18624999999988 Y4.168541666666518 F1000
G3 X39.2070833333332 Y4.849791666666521 R0.7233333333333334 F1000
G1 X39.12062499999987 Y7.317499999999849 F1000
G3 X39.592916666666525 Y7.705624999999847 R14.013958333333335 F1000
G1 X41.99520833333318 Y7.140416666666511 F1000
G3 X42.864166666666506 Y8.007083333333176 R0.7233333333333334 F1000
G1 X42.29895833333316 Y10.411666666666509 F1000
G1 X42.68708333333317 Y10.886249999999835 F1000
G1 X45.15479166666648 Y10.799791666666497 F1000
G3 X45.83812499999981 Y11.820624999999831 R0.7170833333333334 F1000
G1 X44.81729166666647 Y14.062291666666493 F1000
G1 X45.11041666666647 Y14.608749999999826 F1000
G1 X47.53999999999979 Y15.003124999999821 F1000
G3 X48.010416666666444 Y16.137916666666488 R0.7256250000000001 F1000
G1 X46.572083333333104 Y18.135208333333154 F1000
G1 X46.75333333333309 Y18.72999999999982 F1000
G1 X49.05874999999975 Y19.592499999999816 F1000
G3 X49.29916666666641 Y20.796874999999808 R0.7212500000000001 F1000
G1 X47.49583333333307 Y22.4799999999998 F1000
G1 X47.554791666666404 Y23.091666666666466 F1000
G1 X49.65333333333306 Y24.390833333333127 F1000
G3 X49.653333333333045 Y25.618333333333126 R0.7170833333333334 F1000
G1 X49.65541666666666 Y25.618125 F1000
G0 Z5.0                     ; retract
M2
